car-outline.svg

<svg fill="currentColor" viewBox="0 0 24 24"><path d="M18.9 6c-.2-.6-.8-1-1.4-1h-11c-.7 0-1.2.4-1.4 1L3 12v8c0 .5.5 1 1 1h1c.6 0 1-.5 1-1v-1h12v1c0 .5.5 1 1 1h1c.5 0 1-.5 1-1v-8zM6.8 7h10.3l1.1 3H5.8zM19 17H5v-5h14zM7.5 13c.8 0 1.5.7 1.5 1.5S8.3 16 7.5 16 6 15.3 6 14.5 6.7 13 7.5 13m9 0c.8 0 1.5.7 1.5 1.5s-.7 1.5-1.5 1.5-1.5-.7-1.5-1.5.7-1.5 1.5-1.5"/></svg>

<svg  viewBox="0 0 24 24" fill="currentColor"><path  d="M18.9 6C18.7 5.4 18.1 5 17.5 5H6.5C5.8 5 5.3 5.4 5.1 6L3 12V20C3 20.5 3.5 21 4 21H5C5.6 21 6 20.5 6 20V19H18V20C18 20.5 18.5 21 19 21H20C20.5 21 21 20.5 21 20V12L18.9 6M6.8 7H17.1L18.2 10H5.8L6.8 7M19 17H5V12H19V17M7.5 13C8.3 13 9 13.7 9 14.5S8.3 16 7.5 16 6 15.3 6 14.5 6.7 13 7.5 13M16.5 13C17.3 13 18 13.7 18 14.5S17.3 16 16.5 16C15.7 16 15 15.3 15 14.5S15.7 13 16.5 13Z"/></svg>
